www/assets/icons/edit_attributes.svg

<svg xmlns="http://www.w3.org/2000/svg" width="24" height="24" viewBox="0 0 24 24" fill='currentColor'><path d="M17.63 7H6.37C3.96 7 2 9.24 2 12s1.96 5 4.37 5h11.26c2.41 0 4.37-2.24 4.37-5s-1.96-5-4.37-5M7.24 14.46l-2.57-2.57.7-.7 1.87 1.87 3.52-3.52.7.7z"/></svg>

<svg width="24" height="24" viewBox="0 0 24 24" xmlns="http://www.w3.org/2000/svg" fill='currentColor'><path d="M17.63 7H6.37C3.96 7 2 9.24 2 12C2 14.76 3.96 17 6.37 17H17.63C20.04 17 22 14.76 22 12C22 9.24 20.04 7 17.63 7ZM7.24 14.46L4.67 11.89L5.37 11.19L7.24 13.06L10.76 9.54L11.46 10.24L7.24 14.46Z"/></svg>
